X:108
T:Silver Faulken,The. (p)1652.PLFD.108
M:6/4
L:1/4
Q:3/4=90
S:Playford, Dancing Master,2nd Ed.,1652
O:England
N:Silver Falcon?.
H:1652.
Z:Chris Partington.
K:C
c2cc>BA|B>AGd3|F>EDF>GA|A>GAFD2|
E>FGA2G|G>ABc2c|cCCC2D|E>FDC2C:|
